src/banks/paypal.svg

<?xml version="1.0" encoding="UTF-8"?>
<svg width="52px" height="60px" viewBox="0 0 52 60" version="1.1" xmlns="http://www.w3.org/2000/svg" xmlns:xlink="http://www.w3.org/1999/xlink">
    <!-- Generator: Sketch 47 (45396) - http://www.bohemiancoding.com/sketch -->
    <title>PP</title>
    <desc>Created with Sketch.</desc>
    <defs></defs>
    <g id="Page-1" stroke="none" stroke-width="1" fill="none" fill-rule="evenodd">
        <g id="interface" transform="translate(-172.000000, -512.000000)" fill-rule="nonzero">
            <g id="PP" transform="translate(172.000000, 512.000000)">
                <path d="M44.8829159,4.49710324 C42.002579,1.34946091 36.7959486,0 30.1353848,0 L10.8040919,0 C9.44135185,0 8.28336697,0.950231646 8.07000868,2.23865338 L0.0208953623,51.1838317 C-0.139123351,52.1489107 0.640322639,53.0232558 1.660657,53.0232558 L13.5949559,53.0232558 L16.5922956,34.7956352 L16.4993815,35.3664341 C16.7127398,34.0780124 17.8621215,33.1277807 19.2231409,33.1277807 L24.8943418,33.1277807 C36.0354296,33.1277807 44.7590304,28.7890494 47.3072854,16.2380731 C47.3829932,15.8668888 47.4483772,15.5056029 47.505158,15.1525654 C47.1833999,14.9892443 47.1833999,14.9892443 47.505158,15.1525654 C48.2639564,10.5135873 47.499652,7.35604672 44.8829159,4.49710324" id="path14499" fill="#003087"></path>
                <path d="M44.8829159,4.49710324 C42.002579,1.34946091 36.7959486,0 30.1353848,0 L10.8040919,0 C9.44135185,0 8.28336697,0.950231646 8.07000868,2.23865338 L0.0208953623,51.1838317 C-0.139123351,52.1489107 0.640322639,53.0232558 1.660657,53.0232558 L13.5949559,53.0232558 L16.5922956,34.7956352 L16.4993815,35.3664341 C16.7127398,34.0780124 17.8621215,33.1277807 19.2231409,33.1277807 L24.8943418,33.1277807 C36.0354296,33.1277807 44.7590304,28.7890494 47.3072854,16.2380731 C47.3829932,15.8668888 47.4483772,15.5056029 47.505158,15.1525654 C47.1833999,14.9892443 47.1833999,14.9892443 47.505158,15.1525654 C48.2639564,10.5135873 47.499652,7.35604672 44.8829159,4.49710324" id="path14527" fill="#003087"></path>
                <path d="M19.8133182,15.2140779 C19.9406449,14.4386912 20.4602755,13.803534 21.1588518,13.4818309 C21.4771686,13.3366521 21.8316186,13.255814 22.203275,13.255814 L37.3585953,13.255814 C39.1532138,13.255814 40.827388,13.3679976 42.3570292,13.6039131 C42.7957902,13.6714872 43.2207861,13.7490919 43.6337376,13.8381789 C44.0466891,13.9255501 44.4475962,14.0246017 44.8364589,14.1334858 C45.0308902,14.1878618 45.2218803,14.2440856 45.4094291,14.3034109 C46.161345,14.5442758 46.8616419,14.8247348 47.505158,15.1530369 C48.2639564,10.5122647 47.499652,7.3562756 44.8829159,4.49724317 C42.0008585,1.3495029 36.7959489,-1.5449881e-16 30.1353852,-1.5449881e-16 L10.8023721,-1.5449881e-16 C9.44135279,-1.5449881e-16 8.28336794,0.950261212 8.07000966,2.23872303 L0.0208965364,51.1837745 C-0.139122173,52.1505333 0.640323798,53.0232558 1.6589375,53.0232558 L13.5949567,53.0232558 L16.5922964,34.7950681 L19.8133182,15.2140779 L19.8133182,15.2140779 Z" id="path14531" fill="#002F86"></path>
                <path d="M46.8700835,15.3488372 L46.8700835,15.3488372 C46.8124761,15.7048279 46.7497179,16.0657858 46.6752348,16.4383342 C44.1659226,29.0337803 35.575637,33.3901125 24.6048087,33.3901125 L19.0185815,33.3901125 C17.6783614,33.3901125 16.5465447,34.3438363 16.3381413,35.636993 L13.4781014,53.3570488 L12.6665143,58.383968 C12.529273,59.2317225 13.2002303,60 14.0778965,60 L23.9846815,60 C25.1571623,60 26.1551265,59.1654917 26.3381148,58.0346004 L26.4347598,57.5411808 L28.3019185,45.9772797 L28.4222842,45.3381523 C28.6052725,44.2072611 29.6032366,43.3727527 30.7757174,43.3727527 L32.2582618,43.3727527 C41.8549833,43.3727527 49.3693653,39.5628248 51.5652253,28.5436722 C52.4818613,23.9389745 52.0074471,20.0942754 49.5828517,17.3937138 C48.8475097,16.5757631 47.9342623,15.9002088 46.8702191,15.3488372" id="path14535" fill="#009CDE"></path>
                <path d="M45.1225605,14.8396489 C44.7347872,14.7297117 44.3350031,14.6297688 43.9232084,14.5414859 C43.5114137,14.4531363 43.0858926,14.3749143 42.6500765,14.30662 C41.1230045,14.066757 39.4552359,13.9534884 37.663929,13.9534884 L22.5527792,13.9534884 C22.1804482,13.9534884 21.826991,14.035175 21.5112818,14.1833571 C20.8129466,14.5081715 20.2964874,15.1478062 20.1695174,15.9323581 L16.9575187,35.7027323 L16.8648649,36.2790698 C17.0759096,34.9781462 18.2220716,34.0186942 19.5792783,34.0186942 L25.236308,34.0186942 C36.3461859,34.0186942 45.045349,29.6378631 47.5864655,16.9651015 C47.6619612,16.5903156 47.7254462,16.2271897 47.7837838,15.8690609 C47.1403546,15.5392493 46.4437352,15.254412 45.6939257,15.0128833 C45.5069022,14.9529175 45.3164472,14.8945509 45.1225605,14.8396489" id="path14539" fill="#012069"></path>
            </g>
        </g>
    </g>
</svg>

<svg xmlns="http://www.w3.org/2000/svg" viewBox="0 0 52 60"><path fill="#003087" d="M44.883 4.497C42.003 1.35 36.796 0 30.135 0h-19.33C9.44 0 8.282.95 8.07 2.239L.02 51.184c-.16.965.62 1.84 1.64 1.84h11.935l2.997-18.228-.093.57c.214-1.288 1.363-2.238 2.724-2.238h5.671c11.141 0 19.865-4.339 22.413-16.89q.113-.556.198-1.085-.483-.246 0 0c.759-4.64-.005-7.797-2.622-10.656m0 0C42.003 1.35 36.796 0 30.135 0h-19.33C9.44 0 8.282.95 8.07 2.239L.02 51.184c-.16.965.62 1.84 1.64 1.84h11.935l2.997-18.228-.093.57c.214-1.288 1.363-2.238 2.724-2.238h5.671c11.141 0 19.865-4.339 22.413-16.89q.113-.556.198-1.085-.483-.246 0 0c.759-4.64-.005-7.797-2.622-10.656"/><path fill="#009CDE" d="M46.87 15.349c-.058.356-.12.717-.195 1.09-2.51 12.595-11.1 16.951-22.07 16.951h-5.586c-1.34 0-2.472.954-2.68 2.247l-2.86 17.72-.812 5.027c-.138.848.533 1.616 1.41 1.616h9.908c1.172 0 2.17-.835 2.353-1.965l.097-.494 1.867-11.564.12-.639c.183-1.13 1.181-1.965 2.354-1.965h1.482c9.597 0 17.111-3.81 19.307-14.83.917-4.604.442-8.449-1.982-11.15-.735-.817-1.649-1.493-2.713-2.044"/><path fill="#012069" d="M45.123 14.84q-.582-.165-1.2-.299a23 23 0 0 0-1.273-.234c-1.527-.24-3.195-.354-4.986-.354H22.553a2.45 2.45 0 0 0-1.042.23 2.35 2.35 0 0 0-1.341 1.75l-3.212 19.77-.093.576c.21-1.3 1.357-2.26 2.714-2.26h5.657c11.11 0 19.81-4.381 22.35-17.054q.112-.56.198-1.096a14 14 0 0 0-2.09-.856 17 17 0 0 0-.571-.173"/></svg>
